X:34
T: Graf und Nonne (Die Nonne)
N: Q0155g
O: Mitteleuropa, Oesterreich / Italien, Suedtirol, Meran, Marling
R: Ballade, Standesunterschied, vergebliche Werbung, Liebe, Klage, Tod
M: 6/8
L: 1/8
K: G
D | G2GF2G | A3D2
D | A2AG2A | B3z2
d | d2cE2c | c2BD2
B | B2AE2F | G3z2
d | d2cE2c | c2BD2
B | B2AE2F | G3z2

